Sources/FrostedUI/Resources/Icons.xcassets/messageEdit24.imageset/message-edit-24.svg

<svg width="24" height="24" viewBox="0 0 24 24" fill="none" xmlns="http://www.w3.org/2000/svg" data-fui-icon="true">
  <path
    d="M12.75 3.00036C13.1642 3.00036 13.5 3.33614 13.5 3.75036C13.4998 4.16441 13.1641 4.50036 12.75 4.50036H4.75C4.05964 4.50036 3.5 5.06 3.5 5.75036V16.2504C3.50019 16.9406 4.05976 17.5004 4.75 17.5004H8.65137C9.06246 17.5004 9.46129 17.6455 9.77637 17.9095L11.8408 19.64C11.9331 19.7172 12.0681 19.7179 12.1611 19.641L14.2598 17.9027C14.5737 17.6426 14.9686 17.5004 15.376 17.5004H19.25C19.9403 17.5004 20.4998 16.9406 20.5 16.2504V10.5004C20.5 10.0861 20.8358 9.75036 21.25 9.75036C21.6642 9.75036 22 10.0861 22 10.5004V16.2504C21.9998 17.769 20.7687 19.0004 19.25 19.0004H15.376C15.3177 19.0004 15.2614 19.021 15.2168 19.058L13.1182 20.7963C12.4678 21.3349 11.5253 21.332 10.8779 20.7894L8.8125 19.059C8.7675 19.0212 8.71013 19.0004 8.65137 19.0004H4.75C3.23134 19.0004 2.00019 17.769 2 16.2504V5.75036C2 4.23158 3.23122 3.00036 4.75 3.00036H12.75ZM7.5 10.1254C7.98325 10.1254 8.375 10.5172 8.375 11.0004C8.37481 11.4834 7.98313 11.8754 7.5 11.8754C7.01687 11.8754 6.62519 11.4834 6.625 11.0004C6.625 10.5172 7.01675 10.1254 7.5 10.1254ZM12 10.1254C12.4832 10.1254 12.875 10.5172 12.875 11.0004C12.8748 11.4834 12.4831 11.8754 12 11.8754C11.5169 11.8754 11.1252 11.4834 11.125 11.0004C11.125 10.5172 11.5168 10.1254 12 10.1254ZM16.5 10.1254C16.9832 10.1254 17.375 10.5172 17.375 11.0004C17.3748 11.4834 16.9831 11.8754 16.5 11.8754C16.0169 11.8754 15.6252 11.4834 15.625 11.0004C15.625 10.5172 16.0168 10.1254 16.5 10.1254ZM18.834 0.884148C19.9079 -0.1897 21.6487 -0.189763 22.7227 0.884148C23.7964 1.95807 23.7965 3.69892 22.7227 4.77282L18.6221 8.87341C18.1806 9.31474 17.6019 9.59255 16.9814 9.66149L15.4902 9.82653C14.5033 9.93589 13.6697 9.10259 13.7793 8.11559L13.9443 6.62536C14.0133 6.00491 14.2921 5.42624 14.7334 4.98473L18.834 0.884148ZM15.7939 6.04528C15.5936 6.24583 15.467 6.50864 15.4355 6.7904L15.2695 8.28161C15.2662 8.31322 15.2936 8.34062 15.3252 8.33727L16.8164 8.17126C17.0982 8.13985 17.361 8.01324 17.5615 7.81286L20.0713 5.30309L18.3027 3.53551L15.7939 6.04528ZM21.6621 1.94469C21.174 1.45657 20.3827 1.45663 19.8945 1.94469L19.3643 2.47497L21.1318 4.24255L21.6621 3.71227C22.1501 3.22416 22.1501 2.43283 21.6621 1.94469Z"
    fill="currentColor"
  />
</svg>

<svg xmlns="http://www.w3.org/2000/svg" width="24" height="24" fill="none" data-fui-icon="true" viewBox="0 0 24 24"><path fill="currentColor" d="M12.75 3a.75.75 0 0 1 0 1.5h-8c-.69 0-1.25.56-1.25 1.25v10.5c0 .69.56 1.25 1.25 1.25h3.901c.411 0 .81.145 1.125.41l2.065 1.73a.25.25 0 0 0 .32.001l2.099-1.738a1.75 1.75 0 0 1 1.116-.403h3.874c.69 0 1.25-.56 1.25-1.25V10.5a.75.75 0 1 1 1.5 0v5.75A2.75 2.75 0 0 1 19.25 19h-3.874a.25.25 0 0 0-.16.058l-2.098 1.738a1.75 1.75 0 0 1-2.24-.007l-2.065-1.73A.25.25 0 0 0 8.65 19H4.75A2.75 2.75 0 0 1 2 16.25V5.75A2.75 2.75 0 0 1 4.75 3zM7.5 10.125a.875.875 0 1 1 0 1.75.875.875 0 0 1 0-1.75m4.5 0a.875.875 0 1 1 0 1.75.875.875 0 0 1 0-1.75m4.5 0a.875.875 0 1 1 0 1.75.875.875 0 0 1 0-1.75m2.334-9.24a2.75 2.75 0 1 1 3.889 3.888l-4.1 4.1a2.75 2.75 0 0 1-1.642.788l-1.49.166a1.55 1.55 0 0 1-1.712-1.711l.165-1.49c.07-.621.348-1.2.79-1.641zm-3.04 5.16c-.2.2-.327.464-.359.745l-.165 1.492a.05.05 0 0 0 .055.055l1.491-.166a1.25 1.25 0 0 0 .745-.358l2.51-2.51-1.768-1.767zm5.868-4.1a1.25 1.25 0 0 0-1.767 0l-.53.53 1.767 1.768.53-.53a1.25 1.25 0 0 0 0-1.768"/></svg>
